;FLAVOR:Marlin
;TIME:5800
;Filament used: 1.78344m
;Layer height: 0.16
;MINX:126.576
;MINY:124.871
;MINZ:0.2
;MAXX:220.377
;MAXY:174.34
;MAXZ:11.44
;TARGET_MACHINE.NAME:Creality CR-10S
;Generated with Cura_SteamEngine 5.7.0
M140 S50
M105
M190 S50
M104 S200
M105
M109 S200
M82 ;absolute extrusion mode
M201 X500.00 Y500.00 Z100.00 E5000.00 ;Setup machine max acceleration
M203 X500.00 Y500.00 Z10.00 E50.00 ;Setup machine max feedrate
M204 P500.00 R1000.00 T500.00 ;Setup Print/Retract/Travel acceleration
M205 X8.00 Y8.00 Z0.40 E5.00 ;Setup Jerk
M220 S100 ;Reset Feedrate
M221 S100 ;Reset Flowrate

G28 ;Home

G92 E0 ;Reset Extruder
G1 Z2.0 F3000 ;Move Z Axis up
G1 X10.1 Y20 Z0.28 F5000.0 ;Move to start position
G1 X10.1 Y200.0 Z0.28 F1500.0 E15 ;Draw the first line
G1 X10.4 Y200.0 Z0.28 F5000.0 ;Move to side a little
G1 X10.4 Y20 Z0.28 F1500.0 E30 ;Draw the second line
G92 E0 ;Reset Extruder
G1 Z2.0 F3000 ;Move Z Axis up

G92 E0
G92 E0
G1 F2700 E-5
;LAYER_COUNT:77
;LAYER:0
M107
G0 F6000 X130.159 Y134.702 Z0.2
;TYPE:SKIRT
G1 F2700 E0
G1 F1200 X130.889 Y134.03 E0.033
G1 X131.503 Y133.549 E0.05894
G1 X132.103 Y133.113 E0.08361
G1 X134.167 Y131.57 E0.16932
G1 X136.422 Y129.777 E0.26514
G1 X137.376 Y128.995 E0.30617
G1 X138.17 Y128.362 E0.33995
G1 X139.314 Y127.409 E0.38947
G1 X140.091 Y126.821 E0.42188
G1 X140.855 Y126.34 E0.4519
G1 X141.785 Y125.864 E0.48665
G1 X142.688 Y125.501 E0.51902
G1 X143.587 Y125.228 E0.55027
G1 X144.549 Y125.027 E0.58296
G1 X145.998 Y124.886 E0.63138
G1 X146.637 Y124.871 E0.65264
G1 X148.628 Y124.871 E0.71886
G1 X149.495 Y124.882 E0.7477
G1 X150.078 Y124.907 E0.76711
G1 X151.49 Y125.005 E0.81418
G1 X153.705 Y125.14 E0.88799
G1 X156.205 Y125.223 E0.97119
G1 X158.733 Y125.233 E1.05527
G1 X161.264 Y125.173 E1.13948
G1 X163.759 Y125.043 E1.22257
G1 X165.521 Y124.911 E1.28134
G1 X166.031 Y124.884 E1.29833
G1 X166.655 Y124.871 E1.31909
G1 X168.776 Y124.872 E1.38963
G1 X169.5 Y124.882 E1.41371
G1 X170.216 Y124.917 E1.43756
G1 X172.586 Y125.113 E1.51665
G1 X175.094 Y125.253 E1.6002
G1 X177.626 Y125.324 E1.68445
G1 X180.116 Y125.322 E1.76726
G1 X182.691 Y125.248 E1.85294
G1 X184.535 Y125.162 E1.91434
G1 X185.033 Y125.151 E1.93091
G1 X187.154 Y125.152 E2.00145
G1 X187.886 Y125.164 E2.0258
G1 X188.768 Y125.214 E2.05519
G1 X190.011 Y125.335 E2.09672
G1 X192.615 Y125.559 E2.18365
G1 X195.117 Y125.698 E2.267
G1 X197.652 Y125.769 E2.35135
G1 X200.143 Y125.769 E2.4342
G1 X202.739 Y125.695 E2.52058
G1 X204.435 Y125.607 E2.57706
G1 X205.304 Y125.584 E2.60597
G1 X207.424 Y125.585 E2.67649
G1 X208.161 Y125.597 E2.701
G1 X209.133 Y125.656 E2.73339
G1 X210.096 Y125.802 E2.76578
G1 X211.043 Y126.033 E2.79821
G1 X211.964 Y126.346 E2.83056
G1 X212.856 Y126.74 E2.86299
G1 X213.709 Y127.211 E2.8954
G1 X214.515 Y127.755 E2.92774
G1 X215.272 Y128.369 E2.96016
G1 X215.97 Y129.047 E2.99253
G1 X216.603 Y129.779 E3.02471
G1 X217.073 Y130.42 E3.05115
G1 X217.638 Y131.257 E3.08474
G1 X218.185 Y132.091 E3.11791
G1 X218.68 Y132.931 E3.15034
G1 X219.098 Y133.81 E3.18271
G1 X219.426 Y134.69 E3.21395
G1 X219.693 Y135.662 E3.24748
G1 X219.867 Y136.629 E3.28015
G1 X219.959 Y137.759 E3.31786
G1 X219.977 Y138.36 E3.33786
G1 X220.092 Y140.977 E3.42499
G1 X220.273 Y143.501 E3.50915
G1 X220.347 Y144.36 E3.53783
G1 X220.377 Y145.784 E3.5852
G1 X220.246 Y148.807 E3.68584
G1 X220.213 Y151.315 E3.76926
G1 X220.252 Y153.837 E3.85316
G1 X220.323 Y155.732 E3.91623
G1 X220.301 Y156.911 E3.95545
G1 X220.115 Y159.458 E4.04039
G1 X219.997 Y162.074 E4.12748
G1 X219.959 Y163.623 E4.17902
G1 X219.89 Y164.594 E4.2114
G1 X219.736 Y165.557 E4.24383
G1 X219.497 Y166.5 E4.27619
G1 X219.176 Y167.42 E4.3086
G1 X218.774 Y168.306 E4.34096
G1 X218.295 Y169.155 E4.37338
G1 X217.743 Y169.957 E4.40576
G1 X217.122 Y170.707 E4.43815
G1 X216.44 Y171.399 E4.47046
G1 X215.753 Y171.985 E4.5005
G1 X214.9 Y172.59 E4.53528
G1 X214.058 Y173.08 E4.56768
G1 X213.176 Y173.493 E4.60007
G1 X212.328 Y173.804 E4.63011
G1 X211.318 Y174.075 E4.6649
G1 X210.353 Y174.242 E4.69747
G1 X209.267 Y174.327 E4.7337
G1 X208.663 Y174.34 E4.75379
G1 X204.69 Y174.34 E4.88594
G1 X204 Y174.328 E4.90889
G1 X203.126 Y174.278 E4.93801
G1 X199.94 Y174 E5.04438
G1 X197.437 Y173.859 E5.12776
G1 X194.903 Y173.787 E5.21207
G1 X192.417 Y173.787 E5.29476
G1 X188.413 Y173.907 E5.42799
G1 X184.428 Y173.907 E5.56053
G1 X183.744 Y173.897 E5.58328
G1 X183.165 Y173.871 E5.60256
G1 X182.069 Y173.793 E5.63911
G1 X181.431 Y173.737 E5.66041
G1 X178.966 Y173.596 E5.74253
G1 X176.391 Y173.521 E5.82821
G1 X173.934 Y173.519 E5.90993
G1 X170.305 Y173.624 E6.03068
G1 X165.856 Y173.628 E6.17866
G1 X164.708 Y173.6 E6.21685
G1 X161.631 Y173.422 E6.31936
G1 X159.1 Y173.35 E6.40358
G1 X156.612 Y173.35 E6.48633
G1 X154.058 Y173.422 E6.57131
G1 X150.928 Y173.602 E6.67559
G1 X150.307 Y173.624 E6.69625
G1 X145.861 Y173.628 E6.84413
G1 X145.154 Y173.616 E6.86765
G1 X144.182 Y173.556 E6.90004
G1 X143.289 Y173.423 E6.93007
G1 X142.204 Y173.158 E6.96721
G1 X141.224 Y172.858 E7.0013
G1 X140.715 Y172.685 E7.01918
G1 X139.468 Y172.173 E7.06402
G1 X138.954 Y171.924 E7.08301
G1 X138.098 Y171.46 E7.1154
G1 X137.32 Y170.945 E7.14643
G1 X136.802 Y170.547 E7.16816
G1 X134.291 Y168.528 E7.27532
G1 X131.35 Y166.332 E7.3974
G1 X130.602 Y165.717 E7.42961
G1 X129.947 Y165.084 E7.4599
G1 X129.257 Y164.328 E7.49395
G1 X128.708 Y163.611 E7.52398
G1 X128.15 Y162.727 E7.55875
G1 X127.706 Y161.86 E7.59115
G1 X127.366 Y161.024 E7.62117
G1 X127.181 Y160.463 E7.64081
G1 X127.045 Y160.009 E7.65658
G1 X126.81 Y159.067 E7.68887
G1 X126.662 Y158.138 E7.72016
G1 X126.59 Y157.052 E7.75636
G1 X126.576 Y156.177 E7.78546
G1 X126.576 Y143.555 E8.20527
G1 X126.59 Y142.8 E8.23039
G1 X126.652 Y141.827 E8.26282
G1 X126.8 Y140.866 E8.29516
G1 X127.033 Y139.92 E8.32756
G1 X127.337 Y139.03 E8.35884
G1 X127.775 Y138.047 E8.39463
G1 X127.983 Y137.638 E8.4099
G1 X128.464 Y136.792 E8.44226
G1 X129.018 Y135.991 E8.47466
G1 X129.612 Y135.273 E8.50565
G1 X130.159 Y134.702 E8.53195
G0 F6000 X130.448 Y134.979
G1 F1200 X131.136 Y134.345 E8.56307
G1 X131.738 Y133.873 E8.58851
G1 X132.338 Y133.437 E8.61318
G1 X134.407 Y131.89 E8.6991
G1 X136.671 Y130.09 E8.7953
G1 X137.625 Y129.308 E8.83633
G1 X138.419 Y128.675 E8.87011
G1 X139.556 Y127.728 E8.91932
G1 X140.304 Y127.16 E8.95056
G1 X141.068 Y126.679 E8.98059
G1 X141.935 Y126.235 E9.01298
G1 X142.805 Y125.884 E9.04419
G1 X143.669 Y125.62 E9.07424
G1 X144.631 Y125.419 E9.10692
G1 X146.007 Y125.286 E9.1529
G1 X146.646 Y125.271 E9.17416
G1 X148.623 Y125.271 E9.23992
G1 X149.478 Y125.282 E9.26836
G1 X150.05 Y125.306 E9.2874
G1 X151.462 Y125.404 E9.33447
G1 X153.692 Y125.54 E9.40878
G1 X156.192 Y125.623 E9.49198
G1 X158.74 Y125.633 E9.57673
G1 X161.273 Y125.573 E9.661
G1 X163.789 Y125.442 E9.74479
G1 X165.542 Y125.31 E9.80326
G1 X166.039 Y125.284 E9.81982
G1 X166.655 Y125.271 E9.84031
G1 X168.77 Y125.272 E9.91065
G1 X169.481 Y125.282 E9.9343
G1 X170.183 Y125.316 E9.95768
G1 X172.553 Y125.511 E10.03677
G1 X175.083 Y125.653 E10.12105
G1 X177.615 Y125.724 E10.2053
G1 X180.127 Y125.722 E10.28885
G1 X182.71 Y125.648 E10.3748
G1 X184.544 Y125.562 E10.43586
G1 X185.033 Y125.551 E10.45213
G1 X187.148 Y125.552 E10.52248
G1 X187.863 Y125.563 E10.54626
G1 X188.729 Y125.612 E10.57511
G1 X189.977 Y125.734 E10.61682
G1 X192.581 Y125.957 E10.70374
G1 X195.106 Y126.098 E10.78786
G1 X197.641 Y126.169 E10.8722
G1 X200.154 Y126.169 E10.95579
G1 X202.75 Y126.095 E11.04216
G1 X204.446 Y126.007 E11.09865
G1 X205.304 Y125.984 E11.1272
G1 X207.418 Y125.985 E11.19751
G1 X208.137 Y125.996 E11.22143
G1 X209.074 Y126.052 E11.25265
G1 X210.002 Y126.191 E11.28386
G1 X210.915 Y126.412 E11.3151
G1 X211.803 Y126.712 E11.34627
G1 X212.663 Y127.09 E11.37752
G1 X213.486 Y127.543 E11.40876
G1 X214.264 Y128.066 E11.43994
G1 X214.994 Y128.656 E11.47116
G1 X215.668 Y129.309 E11.50238
G1 X216.28 Y130.016 E11.53348
G1 X216.75 Y130.657 E11.55991
G1 X217.304 Y131.477 E11.59283
G1 X217.841 Y132.295 E11.62537
G1 X218.319 Y133.103 E11.6566
G1 X218.723 Y133.95 E11.68781
G1 X219.04 Y134.796 E11.71786
G1 X219.299 Y135.734 E11.75022
G1 X219.468 Y136.662 E11.7816
G1 X219.559 Y137.771 E11.81861
G1 X219.577 Y138.378 E11.8388
G1 X219.692 Y140.995 E11.92593
G1 X219.874 Y143.535 E12.01063
G1 X219.948 Y144.394 E12.0393
G1 X219.977 Y145.767 E12.08498
G1 X219.846 Y148.79 E12.18562
G1 X219.813 Y151.31 E12.26944
G1 X219.852 Y153.852 E12.354
G1 X219.923 Y155.725 E12.41634
G1 X219.902 Y156.882 E12.45483
G1 X219.715 Y159.44 E12.54014
G1 X219.597 Y162.056 E12.62723
G1 X219.56 Y163.595 E12.67843
G1 X219.495 Y164.531 E12.70964
G1 X219.348 Y165.459 E12.74089
G1 X219.119 Y166.369 E12.7721
G1 X218.811 Y167.255 E12.8033
G1 X218.425 Y168.11 E12.8345
G1 X217.965 Y168.929 E12.86574
G1 X217.434 Y169.703 E12.89696
G1 X216.837 Y170.427 E12.92817
G1 X216.18 Y171.095 E12.95934
G1 X215.493 Y171.681 E12.98937
G1 X214.698 Y172.245 E13.02179
G1 X213.888 Y172.718 E13.05299
G1 X213.038 Y173.117 E13.08422
G1 X212.19 Y173.428 E13.11426
G1 X211.249 Y173.681 E13.14667
G1 X210.322 Y173.843 E13.17797
G1 X209.258 Y173.927 E13.21347
G1 X208.654 Y173.94 E13.23356
G1 X204.697 Y173.94 E13.36517
G1 X204.023 Y173.929 E13.38759
G1 X203.161 Y173.88 E13.41631
G1 X199.965 Y173.601 E13.52301
G1 X197.448 Y173.459 E13.60686
G1 X194.914 Y173.387 E13.69118
G1 X192.405 Y173.387 E13.77463
G1 X188.401 Y173.507 E13.90786
G1 X184.434 Y173.507 E14.0398
G1 X183.762 Y173.497 E14.06216
G1 X183.193 Y173.472 E14.0811
G1 X182.104 Y173.395 E14.11741
G1 X181.456 Y173.338 E14.13905
G1 X178.978 Y173.196 E14.2216
G1 X176.403 Y173.121 E14.30728
G1 X173.922 Y173.119 E14.3898
G1 X170.305 Y173.224 E14.51015
G1 X165.866 Y173.228 E14.65779
G1 X164.731 Y173.201 E14.69555
G1 X161.642 Y173.022 E14.79847
G1 X159.111 Y172.95 E14.88268
G1 X156.601 Y172.95 E14.96617
G1 X154.047 Y173.022 E15.05115
G1 X150.913 Y173.202 E15.15556
G1 X150.307 Y173.224 E15.17572
G1 X145.867 Y173.228 E15.3234
G1 X145.178 Y173.217 E15.34632
G1 X144.241 Y173.16 E15.37754
G1 X143.348 Y173.027 E15.40757
G1 X142.321 Y172.775 E15.44274
G1 X141.353 Y172.479 E15.47641
G1 X140.844 Y172.306 E15.49429
G1 X139.642 Y171.813 E15.5375
G1 X139.144 Y171.572 E15.5559
G1 X138.319 Y171.126 E15.58709
G1 X137.541 Y170.611 E15.61813
G1 X137.053 Y170.235 E15.63862
G1 X134.542 Y168.217 E15.74576
G1 X131.604 Y166.023 E15.86772
G1 X130.88 Y165.429 E15.89887
G1 X130.225 Y164.796 E15.92916
G1 X129.575 Y164.085 E15.9612
G1 X129.026 Y163.368 E15.99124
G1 X128.506 Y162.544 E16.02365
G1 X128.077 Y161.709 E16.05487
G1 X127.737 Y160.873 E16.08489
G1 X127.564 Y160.348 E16.10327
G1 X127.433 Y159.912 E16.11841
G1 X127.205 Y159.003 E16.14958
G1 X127.061 Y158.111 E16.17964
G1 X126.99 Y157.046 E16.21514
G1 X126.976 Y156.171 E16.24424
G1 X126.976 Y143.562 E16.66362
G1 X126.989 Y142.825 E16.68814
G1 X127.047 Y141.888 E16.71936
G1 X127.189 Y140.961 E16.75055
G1 X127.412 Y140.049 E16.78178
G1 X127.716 Y139.159 E16.81306
G1 X128.131 Y138.228 E16.84696
G1 X128.331 Y137.835 E16.86163
G1 X128.793 Y137.019 E16.89282
G1 X129.326 Y136.246 E16.92405
G1 X129.901 Y135.55 E16.95407
G1 X130.448 Y134.979 E16.98037
G0 F6000 X130.72 Y135.273
G1 F1200 X130.209 Y135.805 E17.00491
G1 X129.634 Y136.501 E17.03493
G1 X129.123 Y137.245 E17.06495
G1 X128.679 Y138.032 E17.09501
G1 X128.488 Y138.409 E17.10907
G1 X128.081 Y139.322 E17.14231
G1 X127.791 Y140.177 E17.17234
G1 X127.578 Y141.055 E17.20239
G1 X127.443 Y141.948 E17.23243
G1 X127.388 Y142.849 E17.26245
G1 X127.376 Y143.569 E17.2864
G1 X127.376 Y156.165 E17.70535
G1 X127.39 Y157.04 E17.73445
G1 X127.456 Y158.047 E17.76802
G1 X127.6 Y158.939 E17.79807
G1 X127.821 Y159.814 E17.82809
G1 X127.947 Y160.233 E17.84264
G1 X128.108 Y160.722 E17.85976
G1 X128.448 Y161.558 E17.88978
G1 X128.862 Y162.361 E17.91983
G1 X129.344 Y163.125 E17.94987
G1 X129.893 Y163.842 E17.97991
G1 X130.503 Y164.508 E18.00995
G1 X131.158 Y165.141 E18.04024
G1 X131.857 Y165.713 E18.07028
G1 X134.793 Y167.905 E18.19215
G1 X137.304 Y169.923 E18.29929
G1 X137.785 Y170.294 E18.3195
G1 X138.539 Y170.792 E18.34955
G1 X139.334 Y171.22 E18.37958
G1 X139.816 Y171.453 E18.39739
G1 X140.973 Y171.927 E18.43898
G1 X141.482 Y172.1 E18.45686
G1 X142.438 Y172.393 E18.49011
G1 X143.407 Y172.631 E18.5233
G1 X144.3 Y172.764 E18.55333
G1 X145.202 Y172.818 E18.58338
G1 X145.873 Y172.828 E18.6057
G1 X150.307 Y172.824 E18.75318
G1 X150.898 Y172.802 E18.77285
G1 X154.036 Y172.622 E18.87739
G1 X156.59 Y172.55 E18.96237
G1 X159.122 Y172.55 E19.04659
G1 X161.653 Y172.622 E19.1308
G1 X164.754 Y172.802 E19.23411
G1 X165.875 Y172.828 E19.27141
G1 X170.305 Y172.824 E19.41875
G1 X173.91 Y172.719 E19.53871
G1 X176.415 Y172.721 E19.62202
G1 X178.99 Y172.796 E19.7077
G1 X181.49 Y172.94 E19.79099
G1 X182.138 Y172.996 E19.81262
G1 X183.221 Y173.073 E19.84874
G1 X183.779 Y173.097 E19.86731
G1 X184.44 Y173.107 E19.8893
G1 X188.389 Y173.107 E20.02064
G1 X192.393 Y172.987 E20.15388
G1 X194.925 Y172.987 E20.23809
G1 X197.459 Y173.059 E20.32241
G1 X199.999 Y173.203 E20.40702
G1 X202.629 Y173.426 E20.49481
G1 X203.2 Y173.482 E20.51389
G1 X204.046 Y173.53 E20.54208
G1 X204.703 Y173.54 E20.56393
G1 X208.645 Y173.54 E20.69504
G1 X209.249 Y173.527 E20.71514
G1 X210.29 Y173.444 E20.74987
G1 X211.18 Y173.287 E20.77993
G1 X212.052 Y173.052 E20.80997
G1 X212.9 Y172.741 E20.84001
G1 X213.717 Y172.356 E20.87005
G1 X214.496 Y171.9 E20.90007
G1 X215.233 Y171.377 E20.93013
G1 X215.92 Y170.791 E20.96016
G1 X216.552 Y170.147 E20.99017
G1 X217.125 Y169.449 E21.02021
G1 X217.635 Y168.703 E21.05026
G1 X218.076 Y167.915 E21.0803
G1 X218.446 Y167.091 E21.11034
G1 X218.741 Y166.238 E21.14036
G1 X218.96 Y165.362 E21.17039
G1 X219.1 Y164.469 E21.20046
G1 X219.161 Y163.568 E21.23049
G1 X219.197 Y162.038 E21.2814
G1 X219.315 Y159.422 E21.36849
G1 X219.503 Y156.853 E21.45417
G1 X219.523 Y155.718 E21.49192
G1 X219.452 Y153.867 E21.55353
G1 X219.413 Y151.305 E21.63875
G1 X219.446 Y148.773 E21.72298
G1 X219.577 Y145.75 E21.82362
G1 X219.549 Y144.428 E21.8676
G1 X219.475 Y143.569 E21.89627
G1 X219.292 Y141.015 E21.98144
G1 X219.177 Y138.396 E22.06863
G1 X219.159 Y137.783 E22.08903
G1 X219.069 Y136.695 E22.12534
G1 X218.906 Y135.806 E22.1554
G1 X218.665 Y134.936 E22.18542
G1 X218.348 Y134.09 E22.21547
G1 X217.958 Y133.276 E22.24549
G1 X217.497 Y132.499 E22.27554
G1 X216.97 Y131.696 E22.30749
G1 X216.419 Y130.881 E22.34021
G1 X215.958 Y130.253 E22.36612
G1 X215.366 Y129.571 E22.39616
G1 X214.716 Y128.944 E22.42619
G1 X214.013 Y128.378 E22.45621
G1 X213.263 Y127.875 E22.48625
G1 X212.471 Y127.441 E22.51629
G1 X211.643 Y127.079 E22.54634
G1 X210.787 Y126.791 E22.57638
G1 X209.909 Y126.58 E22.60642
G1 X209.016 Y126.448 E22.63644
G1 X208.114 Y126.395 E22.66649
G1 X207.412 Y126.385 E22.68984
G1 X205.304 Y126.384 E22.75996
G1 X204.457 Y126.407 E22.78814
G1 X202.761 Y126.495 E22.84462
G1 X200.165 Y126.569 E22.931
G1 X197.63 Y126.569 E23.01532
G1 X195.095 Y126.498 E23.09966
G1 X192.547 Y126.355 E23.18454
G1 X189.943 Y126.133 E23.27147
G1 X188.69 Y126.01 E23.31334
G1 X187.84 Y125.962 E23.34166
G1 X187.142 Y125.952 E23.36488
G1 X185.033 Y125.951 E23.43502
G1 X184.553 Y125.962 E23.45099
G1 X182.729 Y126.048 E23.51172
G1 X180.138 Y126.122 E23.59794
G1 X177.604 Y126.124 E23.68222
G1 X175.072 Y126.053 E23.76647
G1 X172.52 Y125.909 E23.85148
G1 X170.15 Y125.715 E23.93057
G1 X169.462 Y125.682 E23.95348
G1 X168.764 Y125.672 E23.9767
G1 X166.655 Y125.671 E24.04684
G1 X166.048 Y125.684 E24.06704
G1 X165.563 Y125.709 E24.08319
G1 X163.819 Y125.841 E24.14136
G1 X161.282 Y125.973 E24.22586
G1 X158.747 Y126.033 E24.31019
G1 X156.179 Y126.023 E24.39561
G1 X153.679 Y125.94 E24.4788
G1 X151.434 Y125.803 E24.55361
G1 X150.022 Y125.705 E24.60069
G1 X149.462 Y125.682 E24.61933
G1 X148.618 Y125.671 E24.6474
G1 X146.655 Y125.671 E24.71269
G1 X146.016 Y125.686 E24.73395
G1 X144.67 Y125.817 E24.77893
G1 X143.786 Y126.003 E24.80898
G1 X142.922 Y126.267 E24.83902
G1 X142.085 Y126.606 E24.86906
G1 X141.281 Y127.018 E24.89911
G1 X140.517 Y127.499 E24.92914
G1 X139.798 Y128.046 E24.95918
G1 X138.668 Y128.988 E25.00811
G1 X137.874 Y129.621 E25.04189
G1 X136.92 Y130.403 E25.08292
G1 X134.647 Y132.21 E25.17949
G1 X132.573 Y133.761 E25.26563
