;FLAVOR:Marlin
;TIME:21214
;Filament used: 9.76415m
;Layer height: 0.16
;MINX:76.255
;MINY:66.567
;MINZ:0.2
;MAXX:223.727
;MAXY:233.438
;MAXZ:11.4
;TARGET_MACHINE.NAME:Creality CR-10S
;Generated with Cura_SteamEngine 5.7.0
M140 S50
M105
M190 S50
M104 S200
M105
M109 S200
M82 ;absolute extrusion mode
M201 X500.00 Y500.00 Z100.00 E5000.00 ;Setup machine max acceleration
M203 X500.00 Y500.00 Z10.00 E50.00 ;Setup machine max feedrate
M204 P500.00 R1000.00 T500.00 ;Setup Print/Retract/Travel acceleration
M205 X8.00 Y8.00 Z0.40 E5.00 ;Setup Jerk
M220 S100 ;Reset Feedrate
M221 S100 ;Reset Flowrate

G28 ;Home

G92 E0 ;Reset Extruder
G1 Z2.0 F3000 ;Move Z Axis up
G1 X10.1 Y20 Z0.28 F5000.0 ;Move to start position
G1 X10.1 Y200.0 Z0.28 F1500.0 E15 ;Draw the first line
G1 X10.4 Y200.0 Z0.28 F5000.0 ;Move to side a little
G1 X10.4 Y20 Z0.28 F1500.0 E30 ;Draw the second line
G92 E0 ;Reset Extruder
G1 Z2.0 F3000 ;Move Z Axis up

G92 E0
G92 E0
G1 F2700 E-5
;LAYER_COUNT:77
;LAYER:0
M107
G0 F6000 X81.248 Y125.801 Z0.2
;TYPE:SKIRT
G1 F2700 E0
G1 F1200 X82.053 Y125.321 E0.03117
G1 X82.878 Y124.92 E0.06168
G1 X85.571 Y123.749 E0.15935
G1 X87.84 Y122.683 E0.24273
G1 X90.07 Y121.557 E0.32582
G1 X92.33 Y120.335 E0.41128
G1 X94.488 Y119.088 E0.49417
G1 X96.604 Y117.781 E0.57689
G1 X98.724 Y116.391 E0.66121
G1 X100.791 Y114.948 E0.74505
G1 X102.815 Y113.451 E0.82879
G1 X104.864 Y111.842 E0.91544
G1 X105.37 Y111.435 E0.93703
G1 X106.155 Y110.859 E0.96942
G1 X106.957 Y110.372 E1.00063
G1 X107.863 Y109.927 E1.0342
G1 X108.772 Y109.578 E1.06658
G1 X109.707 Y109.31 E1.09893
G1 X110.593 Y109.136 E1.12896
G1 X111.313 Y109.05 E1.15308
G1 X112.333 Y108.962 E1.18713
G1 X114.92 Y108.702 E1.27361
G1 X117.476 Y108.372 E1.35933
G1 X119.925 Y107.985 E1.44179
G1 X122.379 Y107.525 E1.52484
G1 X124.847 Y106.992 E1.60882
G1 X127.292 Y106.391 E1.69256
G1 X129.73 Y105.715 E1.7767
G1 X132.139 Y104.975 E1.86052
G1 X134.529 Y104.165 E1.94446
G1 X136.87 Y103.298 E2.02749
G1 X139.195 Y102.36 E2.11087
G1 X141.534 Y101.34 E2.19574
G1 X143.79 Y100.28 E2.27865
G1 X146.051 Y99.137 E2.36291
G1 X148.263 Y97.94 E2.44656
G1 X150.463 Y96.667 E2.5311
G1 X152.59 Y95.354 E2.61424
G1 X154.662 Y93.994 E2.69668
G1 X156.746 Y92.538 E2.78123
G1 X158.778 Y91.034 E2.86531
G1 X160.743 Y89.49 E2.94843
G1 X162.701 Y87.859 E3.03319
G1 X164.558 Y86.222 E3.11553
G1 X166.449 Y84.458 E3.20154
G1 X168.194 Y82.734 E3.28313
G1 X169.958 Y80.892 E3.36795
G1 X171.651 Y79.02 E3.4519
G1 X173.277 Y77.114 E3.53523
G1 X174.822 Y75.199 E3.61707
G1 X177.145 Y72.099 E3.74591
G1 X177.854 Y71.113 E3.7863
G1 X178.436 Y70.377 E3.81751
G1 X179.129 Y69.645 E3.85104
G1 X179.804 Y69.045 E3.88108
G1 X180.644 Y68.422 E3.91586
G1 X181.446 Y67.934 E3.94708
G1 X182.351 Y67.486 E3.98067
G1 X183.258 Y67.136 E4.01301
G1 X184.196 Y66.865 E4.04548
G1 X185.15 Y66.681 E4.07779
G1 X186.12 Y66.581 E4.11023
G1 X187.093 Y66.567 E4.14259
G1 X188.065 Y66.638 E4.17501
G1 X189.026 Y66.796 E4.2074
G1 X189.968 Y67.037 E4.23974
G1 X190.858 Y67.35 E4.27112
G1 X191.952 Y67.86 E4.31127
G1 X192.564 Y68.195 E4.33447
G1 X217.665 Y82.686 E5.29847
G1 X218.407 Y83.129 E5.32721
G1 X219.219 Y83.668 E5.35963
G1 X219.978 Y84.276 E5.39197
G1 X220.658 Y84.924 E5.42321
G1 X221.325 Y85.683 E5.45682
G1 X221.897 Y86.468 E5.48913
G1 X222.366 Y87.24 E5.51917
G1 X222.827 Y88.18 E5.55399
G1 X223.174 Y89.09 E5.58639
G1 X223.44 Y90.027 E5.61878
G1 X223.621 Y90.983 E5.65114
G1 X223.717 Y91.953 E5.68356
G1 X223.727 Y92.934 E5.71619
G1 X223.631 Y94.056 E5.75365
G1 X223.238 Y96.826 E5.8467
G1 X222.959 Y99.309 E5.92981
G1 X222.745 Y101.826 E6.01382
G1 X222.607 Y104.322 E6.09697
G1 X222.537 Y106.853 E6.18118
G1 X222.539 Y109.366 E6.26476
G1 X222.613 Y111.91 E6.34941
G1 X222.754 Y114.359 E6.431
G1 X222.977 Y116.951 E6.51753
G1 X223.183 Y118.849 E6.58103
G1 X223.242 Y119.707 E6.60963
G1 X223.255 Y120.33 E6.63036
G1 X223.254 Y179.451 E8.59673
G1 X223.242 Y180.18 E8.62098
G1 X223.193 Y181.057 E8.6502
G1 X223.103 Y181.961 E8.68041
G1 X222.978 Y183.078 E8.7178
G1 X222.755 Y185.646 E8.80353
G1 X222.617 Y188.081 E8.88465
G1 X222.544 Y190.65 E8.97013
G1 X222.542 Y193.162 E9.05368
G1 X222.613 Y195.68 E9.13746
G1 X222.752 Y198.148 E9.21968
G1 X222.968 Y200.725 E9.30569
G1 X223.246 Y203.169 E9.3875
G1 X223.633 Y205.974 E9.48168
G1 X223.721 Y206.944 E9.51407
G1 X223.723 Y207.919 E9.5465
G1 X223.642 Y208.854 E9.57772
G1 X223.466 Y209.847 E9.61126
G1 X223.213 Y210.787 E9.64363
G1 X222.89 Y211.669 E9.67488
G1 X222.46 Y212.582 E9.70844
G1 X221.968 Y213.421 E9.74079
G1 X221.403 Y214.216 E9.77323
G1 X220.771 Y214.955 E9.80557
G1 X220.076 Y215.638 E9.83798
G1 X219.352 Y216.233 E9.86915
G1 X218.54 Y216.79 E9.9019
G1 X217.968 Y217.137 E9.92415
G1 X192.737 Y231.703 E10.89314
G1 X192.104 Y232.057 E10.91727
G1 X191.233 Y232.492 E10.94965
G1 X190.326 Y232.848 E10.98205
G1 X189.392 Y233.122 E11.01443
G1 X188.437 Y233.313 E11.04682
G1 X187.469 Y233.419 E11.07921
G1 X186.495 Y233.438 E11.11161
G1 X185.523 Y233.371 E11.14402
G1 X184.561 Y233.218 E11.17641
G1 X183.618 Y232.981 E11.20875
G1 X182.71 Y232.668 E11.2407
G1 X182.166 Y232.435 E11.26038
G1 X180.655 Y231.741 E11.31569
G1 X178.307 Y230.72 E11.40084
G1 X175.916 Y229.76 E11.48654
G1 X173.626 Y228.916 E11.56771
G1 X171.224 Y228.106 E11.65202
G1 X168.831 Y227.374 E11.73526
G1 X166.407 Y226.705 E11.81889
G1 X163.962 Y226.106 E11.90262
G1 X161.431 Y225.562 E11.98872
G1 X159.034 Y225.115 E12.06982
G1 X156.525 Y224.722 E12.15429
G1 X154.04 Y224.404 E12.23761
G1 X151.502 Y224.152 E12.32244
G1 X149.051 Y223.978 E12.40417
G1 X146.484 Y223.869 E12.48963
G1 X143.985 Y223.833 E12.57275
G1 X141.487 Y223.869 E12.65584
G1 X138.944 Y223.977 E12.7405
G1 X136.393 Y224.156 E12.82556
G1 X135.343 Y224.25 E12.86062
G1 X134.557 Y224.292 E12.8868
G1 X133.745 Y224.305 E12.91381
G1 X121.068 Y224.305 E13.33545
G1 X120.326 Y224.292 E13.36013
G1 X119.354 Y224.231 E13.39252
G1 X118.391 Y224.084 E13.42492
G1 X117.432 Y223.848 E13.45777
G1 X116.216 Y223.412 E13.50074
G1 X115.789 Y223.227 E13.51621
G1 X114.913 Y222.799 E13.54864
G1 X114.109 Y222.314 E13.57987
G1 X113.327 Y221.744 E13.61206
G1 X112.794 Y221.291 E13.63532
G1 X112.509 Y221.032 E13.64813
G1 X111.868 Y220.396 E13.67817
G1 X111.074 Y219.438 E13.71955
G1 X110.596 Y218.79 E13.74633
G1 X109.882 Y217.794 E13.78709
G1 X107.735 Y214.998 E13.90434
G1 X105.449 Y212.225 E14.02387
G1 X104.98 Y211.676 E14.04789
G1 X104.383 Y210.906 E14.08029
G1 X103.856 Y210.088 E14.11266
G1 X103.434 Y209.29 E14.14268
G1 X103.053 Y208.395 E14.17503
G1 X102.229 Y206.184 E14.25351
G1 X101.311 Y203.904 E14.33526
G1 X100.291 Y201.562 E14.42022
G1 X99.218 Y199.276 E14.50422
G1 X98.096 Y197.056 E14.58695
G1 X96.884 Y194.814 E14.67172
G1 X95.636 Y192.652 E14.75474
G1 X94.315 Y190.511 E14.83842
G1 X92.934 Y188.407 E14.92213
G1 X91.501 Y186.353 E15.00542
G1 X89.98 Y184.297 E15.09049
G1 X88.44 Y182.335 E15.17344
G1 X86.826 Y180.394 E15.2574
G1 X85.173 Y178.519 E15.34054
G1 X83.431 Y176.649 E15.42554
G1 X81.684 Y174.879 E15.50826
G1 X79.634 Y172.917 E15.60264
G1 X78.963 Y172.21 E15.63506
G1 X78.358 Y171.448 E15.66742
G1 X77.821 Y170.636 E15.6998
G1 X77.39 Y169.842 E15.72985
G1 X76.975 Y168.883 E15.7646
G1 X76.691 Y168.026 E15.79463
G1 X76.452 Y167.009 E15.82938
G1 X76.323 Y166.115 E15.85942
G1 X76.27 Y165.327 E15.88569
G1 X76.255 Y164.67 E15.90755
G1 X76.256 Y135.538 E16.87648
G1 X76.267 Y134.83 E16.90003
G1 X76.327 Y133.84 E16.93302
G1 X76.474 Y132.878 E16.96539
G1 X76.705 Y131.931 E16.99781
G1 X76.993 Y131.075 E17.02785
G1 X77.412 Y130.119 E17.06256
G1 X77.883 Y129.266 E17.09497
G1 X78.428 Y128.46 E17.12733
G1 X79.042 Y127.703 E17.15975
G1 X79.72 Y127.004 E17.19214
G1 X80.458 Y126.368 E17.22454
G1 X81.248 Y125.801 E17.25689
G0 F6000 X81.453 Y126.145
G1 F1200 X82.258 Y125.665 E17.28806
G1 X83.038 Y125.287 E17.31689
G1 X85.731 Y124.116 E17.41456
G1 X88.01 Y123.045 E17.49831
G1 X90.26 Y121.909 E17.58214
G1 X92.52 Y120.687 E17.6676
G1 X94.688 Y119.434 E17.75088
G1 X96.823 Y118.116 E17.83433
G1 X98.943 Y116.726 E17.91865
G1 X101.029 Y115.27 E18.00326
G1 X103.053 Y113.773 E18.08699
G1 X105.111 Y112.157 E18.17402
G1 X105.607 Y111.757 E18.19521
G1 X106.363 Y111.201 E18.22643
G1 X107.165 Y110.714 E18.25763
G1 X108.007 Y110.3 E18.28884
G1 X108.883 Y109.962 E18.32007
G1 X109.784 Y109.703 E18.35125
G1 X110.67 Y109.529 E18.38128
G1 X111.347 Y109.449 E18.40396
G1 X112.367 Y109.361 E18.43801
G1 X114.971 Y109.099 E18.52505
G1 X117.527 Y108.769 E18.61077
G1 X119.995 Y108.379 E18.69388
G1 X122.466 Y107.916 E18.77749
G1 X124.932 Y107.383 E18.86141
G1 X127.388 Y106.779 E18.94553
G1 X129.85 Y106.097 E19.0305
G1 X132.267 Y105.354 E19.1146
G1 X134.657 Y104.544 E19.19853
G1 X137.02 Y103.669 E19.28234
G1 X139.356 Y102.727 E19.36612
G1 X141.694 Y101.707 E19.45096
G1 X143.96 Y100.642 E19.53423
G1 X146.241 Y99.489 E19.61924
G1 X148.453 Y98.292 E19.70289
G1 X150.663 Y97.013 E19.78782
G1 X152.8 Y95.694 E19.87135
G1 X154.891 Y94.322 E19.95453
G1 X156.984 Y92.86 E20.03944
G1 X159.016 Y91.356 E20.12353
G1 X160.99 Y89.805 E20.20702
G1 X162.966 Y88.159 E20.29256
G1 X164.823 Y86.522 E20.3749
G1 X166.722 Y84.751 E20.46126
G1 X168.475 Y83.019 E20.54322
G1 X170.247 Y81.169 E20.62843
G1 X171.948 Y79.288 E20.71278
G1 X173.581 Y77.374 E20.79646
G1 X175.142 Y75.439 E20.87915
G1 X177.465 Y72.339 E21.00799
G1 X178.168 Y71.361 E21.04805
G1 X178.75 Y70.625 E21.07926
G1 X179.395 Y69.944 E21.11046
G1 X180.07 Y69.344 E21.1405
G1 X180.852 Y68.764 E21.17288
G1 X181.654 Y68.276 E21.2041
G1 X182.496 Y67.859 E21.23535
G1 X183.37 Y67.52 E21.26653
G1 X184.272 Y67.258 E21.29777
G1 X185.192 Y67.079 E21.32895
G1 X186.126 Y66.981 E21.36018
G1 X187.064 Y66.966 E21.39138
G1 X188.001 Y67.033 E21.42263
G1 X188.927 Y67.184 E21.45383
G1 X189.836 Y67.415 E21.48503
G1 X190.689 Y67.713 E21.51508
G1 X191.783 Y68.223 E21.55523
G1 X192.364 Y68.541 E21.57726
G1 X217.46 Y83.029 E22.54106
G1 X218.186 Y83.463 E22.56919
G1 X218.969 Y83.981 E22.60042
G1 X219.702 Y84.566 E22.63161
G1 X220.382 Y85.214 E22.66285
G1 X221.002 Y85.919 E22.69408
G1 X221.555 Y86.676 E22.72526
G1 X222.024 Y87.448 E22.7553
G1 X222.453 Y88.323 E22.78772
G1 X222.789 Y89.2 E22.81895
G1 X223.047 Y90.102 E22.85016
G1 X223.223 Y91.023 E22.88134
G1 X223.317 Y91.958 E22.9126
G1 X223.328 Y92.9 E22.94393
G1 X223.232 Y94.022 E22.98139
G1 X222.842 Y96.77 E23.0737
G1 X222.56 Y99.275 E23.15754
G1 X222.347 Y101.792 E23.24156
G1 X222.207 Y104.311 E23.32547
G1 X222.137 Y106.842 E23.40968
G1 X222.139 Y109.366 E23.49363
G1 X222.213 Y111.922 E23.57868
G1 X222.355 Y114.393 E23.661
G1 X222.579 Y116.994 E23.74783
G1 X222.784 Y118.877 E23.81083
G1 X222.842 Y119.715 E23.83877
G1 X222.855 Y120.33 E23.85923
G1 X222.854 Y179.445 E25.8254
G1 X222.843 Y180.158 E25.84912
G1 X222.795 Y181.018 E25.87777
G1 X222.706 Y181.916 E25.90778
G1 X222.579 Y183.044 E25.94554
G1 X222.357 Y185.612 E26.03127
G1 X222.217 Y188.07 E26.11315
G1 X222.144 Y190.639 E26.19863
G1 X222.142 Y193.162 E26.28255
G1 X222.213 Y195.691 E26.3667
G1 X222.353 Y198.182 E26.44968
G1 X222.57 Y200.759 E26.53569
G1 X222.85 Y203.224 E26.61821
G1 X223.235 Y206.011 E26.71178
G1 X223.321 Y206.945 E26.74298
G1 X223.324 Y207.884 E26.77421
G1 X223.243 Y208.819 E26.80542
G1 X223.08 Y209.743 E26.83663
G1 X222.837 Y210.649 E26.86783
G1 X222.514 Y211.531 E26.89907
G1 X222.115 Y212.38 E26.93027
G1 X221.642 Y213.19 E26.96147
G1 X221.099 Y213.956 E26.9927
G1 X220.49 Y214.67 E27.02391
G1 X219.821 Y215.329 E27.05514
G1 X219.125 Y215.903 E27.08515
G1 X218.332 Y216.448 E27.11715
G1 X217.768 Y216.791 E27.13911
G1 X192.542 Y231.354 E28.10791
G1 X191.925 Y231.699 E28.13142
G1 X191.086 Y232.12 E28.16264
G1 X190.213 Y232.464 E28.19385
G1 X189.313 Y232.73 E28.22506
G1 X188.393 Y232.915 E28.25627
G1 X187.46 Y233.019 E28.2875
G1 X186.522 Y233.039 E28.3187
G1 X185.585 Y232.976 E28.34994
G1 X184.658 Y232.83 E28.38115
G1 X183.748 Y232.603 E28.41234
G1 X182.867 Y232.3 E28.44333
G1 X182.333 Y232.072 E28.46264
G1 X180.815 Y231.374 E28.51821
G1 X178.467 Y230.353 E28.60337
G1 X176.065 Y229.389 E28.68946
G1 X173.754 Y228.537 E28.77138
G1 X171.352 Y227.727 E28.85569
G1 X168.937 Y226.988 E28.93969
G1 X166.502 Y226.316 E29.02371
G1 X164.057 Y225.717 E29.10743
G1 X161.515 Y225.171 E29.19391
G1 X159.096 Y224.72 E29.27575
G1 X156.576 Y224.325 E29.36059
G1 X154.091 Y224.007 E29.44391
G1 X151.537 Y223.753 E29.52928
G1 X149.068 Y223.578 E29.6116
G1 X146.501 Y223.469 E29.69706
G1 X143.985 Y223.433 E29.78075
G1 X141.47 Y223.469 E29.86441
G1 X138.927 Y223.577 E29.94907
G1 X136.365 Y223.757 E30.03449
G1 X135.322 Y223.851 E30.06932
G1 X134.551 Y223.892 E30.095
G1 X133.739 Y223.905 E30.12201
G1 X121.075 Y223.905 E30.54322
G1 X120.35 Y223.893 E30.56733
G1 X119.414 Y223.836 E30.59852
G1 X118.486 Y223.695 E30.62974
G1 X117.567 Y223.471 E30.6612
G1 X116.351 Y223.035 E30.70417
G1 X115.964 Y222.868 E30.71819
G1 X115.12 Y222.456 E30.74942
G1 X114.316 Y221.971 E30.78065
G1 X113.563 Y221.421 E30.81167
G1 X113.063 Y220.995 E30.83352
G1 X112.791 Y220.748 E30.84574
G1 X112.15 Y220.112 E30.87577
G1 X111.396 Y219.201 E30.9151
G1 X110.921 Y218.557 E30.94172
G1 X110.207 Y217.561 E30.98248
G1 X108.044 Y214.743 E31.10063
G1 X105.757 Y211.971 E31.22016
G1 X105.296 Y211.43 E31.2438
G1 X104.719 Y210.689 E31.27503
G1 X104.21 Y209.901 E31.30623
G1 X103.788 Y209.103 E31.33626
G1 X103.428 Y208.255 E31.3669
G1 X102.604 Y206.044 E31.44538
G1 X101.678 Y203.744 E31.52784
G1 X100.658 Y201.402 E31.61281
G1 X99.58 Y199.106 E31.69717
G1 X98.453 Y196.876 E31.78027
G1 X97.236 Y194.624 E31.86541
G1 X95.982 Y192.452 E31.94883
G1 X94.655 Y190.301 E32.03289
G1 X93.262 Y188.178 E32.11735
G1 X91.823 Y186.115 E32.20101
G1 X90.302 Y184.059 E32.28607
G1 X88.755 Y182.088 E32.3694
G1 X87.133 Y180.138 E32.45376
G1 X85.466 Y178.246 E32.53763
G1 X83.724 Y176.376 E32.62264
G1 X81.969 Y174.598 E32.70573
G1 X79.924 Y172.641 E32.79987
G1 X79.276 Y171.961 E32.83111
G1 X78.691 Y171.227 E32.86233
G1 X78.173 Y170.445 E32.89353
G1 X77.742 Y169.651 E32.92358
G1 X77.355 Y168.757 E32.95598
G1 X77.071 Y167.9 E32.98601
G1 X76.848 Y166.952 E33.0184
G1 X76.719 Y166.058 E33.04844
G1 X76.67 Y165.318 E33.07311
G1 X76.655 Y164.67 E33.09467
G1 X76.656 Y135.544 E34.0634
G1 X76.666 Y134.854 E34.08635
G1 X76.723 Y133.9 E34.11814
G1 X76.863 Y132.972 E34.14935
G1 X77.084 Y132.059 E34.1806
G1 X77.372 Y131.203 E34.21064
G1 X77.762 Y130.312 E34.24299
G1 X78.215 Y129.489 E34.27423
G1 X78.739 Y128.711 E34.30543
G1 X79.329 Y127.981 E34.33665
G1 X79.982 Y127.307 E34.36786
G1 X80.692 Y126.693 E34.39908
G1 X81.453 Y126.145 E34.43027
G0 F6000 X81.658 Y126.488
G1 F1200 X82.433 Y126.025 E34.4603
G1 X83.198 Y125.654 E34.48858
G1 X85.891 Y124.483 E34.58625
G1 X88.18 Y123.407 E34.67037
G1 X90.45 Y122.261 E34.75495
G1 X92.71 Y121.039 E34.8404
G1 X94.888 Y119.78 E34.92407
G1 X97.042 Y118.451 E35.00826
G1 X99.162 Y117.061 E35.09257
G1 X101.267 Y115.592 E35.17795
G1 X103.291 Y114.095 E35.26168
G1 X105.358 Y112.472 E35.34909
G1 X105.844 Y112.079 E35.36988
G1 X106.571 Y111.543 E35.39992
G1 X107.342 Y111.073 E35.42995
G1 X108.152 Y110.673 E35.46
G1 X108.994 Y110.346 E35.49004
G1 X109.861 Y110.096 E35.52005
G1 X110.747 Y109.922 E35.55008
G1 X111.381 Y109.848 E35.57131
G1 X112.401 Y109.76 E35.60536
G1 X115.022 Y109.496 E35.69298
G1 X117.578 Y109.166 E35.7787
G1 X120.065 Y108.773 E35.86244
G1 X122.553 Y108.307 E35.94663
G1 X125.017 Y107.774 E36.03048
G1 X127.484 Y107.167 E36.11498
G1 X129.957 Y106.482 E36.20033
G1 X132.395 Y105.733 E36.28516
G1 X134.785 Y104.923 E36.36909
G1 X137.17 Y104.04 E36.45368
G1 X139.517 Y103.094 E36.53784
G1 X141.854 Y102.074 E36.62265
G1 X144.13 Y101.004 E36.7063
G1 X146.431 Y99.841 E36.79205
G1 X148.643 Y98.644 E36.87571
G1 X150.863 Y97.359 E36.96102
G1 X153.01 Y96.034 E37.04493
G1 X155.12 Y94.65 E37.12886
G1 X157.222 Y93.182 E37.21414
G1 X159.254 Y91.678 E37.29822
G1 X161.237 Y90.12 E37.3821
G1 X163.231 Y88.459 E37.46841
G1 X165.088 Y86.822 E37.55075
G1 X166.995 Y85.044 E37.63747
G1 X168.756 Y83.304 E37.71981
G1 X170.536 Y81.446 E37.80539
G1 X172.245 Y79.556 E37.89014
G1 X173.885 Y77.634 E37.97417
G1 X175.462 Y75.679 E38.05771
G1 X177.785 Y72.579 E38.18656
G1 X178.482 Y71.609 E38.22628
G1 X179.041 Y70.9 E38.25631
